X: 27249
T: Miss Shepherd
R: reel
M: 4/4
K: Adorian
|:A,B,CD E2 DC|B,GFG DB,G,B,|A,B,CD EGAc|BA^GB cAA2:|
^g|a2 ed cBAF|G2 D CB,A,G, ^g|a2 ed cBAc|BA^GB cAA ^g|
a2 ed cBAF|G2 DC B,A,G,B,|A,B,CD EGAc|BA^GB cAA|

